X:35
T:Untitled Tune,2voices. WHG.035
R:song
S:W.H.Giles MS,Bampton,Oxfordshire,1839p32, p33
O:England
H:donated by Mrs W.R.Kettlewell to VWML,Apr 1927.
A:Bampton, Oxfordshire
Z:PJHeadford – VMP 2009
M:C
L:1/8
Q:2/4=60
K:G
[V:1]B2B>A G2G2|A2A2 B2Gz|d2d>c B2B2|A>G AB G4||
[V:2]d2d>c B2e2|c2c2 c2Bz|B2B>A G2G2|F2F2 G4||
%
[V:1]” p”B2B>c d2d2|e2e>c d2Bz|B2B>c d2d2|e2g>f d4||
[V:2]d2d2 d2d2|c2c2 B2Az|G2G>F G2G2|c2c2 B4||
%
[V:1]B2B>A G2G2|A2A2 B2Gz|d2d>c B2B2|A>A A>B G4||
[V:2]B2B2 B2^c2|d2c2 B2Bz|B2c>B G2G2|F2F2 G4||

